src/components/00-materials/images-raw/Woman Shirt.svg

<svg width="96" height="96" viewBox="0 0 96 96" fill="none" xmlns="http://www.w3.org/2000/svg">
<path d="M53 31H44C41.3839 31.1346 38.9017 32.1984 37 34V41C37 47.64 41 53 48 53C55 53 59 47.61 59 41V28C59 28 56 31 53 31Z" stroke="#00008F" stroke-width="2" stroke-linecap="round" stroke-linejoin="round"/>
<path d="M31 29.3099C30.9974 27.4333 31.3644 25.5746 32.0801 23.8398C32.7958 22.1051 33.8462 20.5283 35.1713 19.1995C36.4964 17.8707 38.0703 16.8159 39.803 16.0953C41.5357 15.3748 43.3934 15.0025 45.27 14.9999H47.46C49.9815 14.9592 52.469 15.5851 54.671 16.8143C56.8729 18.0434 58.7113 19.8323 60 21.9999C60.6677 21.9574 61.3367 22.0575 61.9626 22.2938C62.5886 22.53 63.157 22.8968 63.63 23.3699C64.1031 23.843 64.4699 24.4114 64.7062 25.0373C64.9424 25.6632 65.0426 26.3323 65 26.9999V44.9999C64.9811 46.4176 65.3421 47.8144 66.0455 49.0454C66.7489 50.2763 67.769 51.2965 69 51.9999C68.3788 53.2378 67.4747 54.312 66.3611 55.1355C65.2475 55.959 63.9556 56.5086 62.59 56.7399L61 56.9999M41 51.0899V56.0999L48 74.1499M55 51.0899V56.0999M41 56.1799L32.89 57.4299C29.855 57.9045 27.0896 59.4483 25.0927 61.7826C23.0958 64.1169 21.9989 67.088 22 70.1599V74.8499C21.997 75.7811 22.319 76.6842 22.9105 77.4034C23.5019 78.1226 24.3258 78.613 25.24 78.7899L35.91 80.7899C43.8955 82.3399 52.1045 82.3399 60.09 80.7899L70.76 78.7899C71.6743 78.613 72.4981 78.1226 73.0896 77.4034C73.681 76.6842 74.003 75.7811 74 74.8499V70.1599C74.0011 67.088 72.9043 64.1169 70.9074 61.7826C68.9105 59.4483 66.145 57.9045 63.11 57.4299L55 56.1799" stroke="#00008F" stroke-width="2" stroke-linecap="round" stroke-linejoin="round"/>
<path d="M38 57.11L33 68.14L40 66.13L48 74.15M48 74.15L56 66.13L63 68.14L58 57.11L55 56.1L48 74.15ZM33 75V80.17M63 75V80.17M48 74V82M35 57L33.41 56.74C32.0444 56.5087 30.7525 55.959 29.6389 55.1356C28.5253 54.3121 27.6212 53.2379 27 52C28.231 51.2966 29.2512 50.2764 29.9546 49.0455C30.658 47.8145 31.0189 46.4176 31 45V29" stroke="#00008F" stroke-width="2" stroke-linecap="round" stroke-linejoin="round"/>
</svg>

<svg width="96" height="96" viewBox="0 0 96 96" fill="none" xmlns="http://www.w3.org/2000/svg"><path d="M53 31h-9a11 11 0 00-7 3v7c0 6.64 4 12 11 12s11-5.39 11-12V28s-3 3-6 3z" stroke="#00008F" stroke-width="2" stroke-linecap="round" stroke-linejoin="round"/><path d="M31 29.31A14.291 14.291 0 0145.27 15h2.19A14.32 14.32 0 0160 22a4.71 4.71 0 015 5v18a7.94 7.94 0 004 7 8.82 8.82 0 01-6.41 4.74L61 57m-20-5.91v5.01l7 18.05m7-23.06v5.01m-14 .08l-8.11 1.25A12.88 12.88 0 0022 70.16v4.69a4 4 0 003.24 3.94l10.67 2a63.45 63.45 0 0024.18 0l10.67-2A4 4 0 0074 74.85v-4.69a12.88 12.88 0 00-10.89-12.73L55 56.18" stroke="#00008F" stroke-width="2" stroke-linecap="round" stroke-linejoin="round"/><path d="M38 57.11l-5 11.03 7-2.01 8 8.02m0 0l8-8.02 7 2.01-5-11.03-3-1.01-7 18.05zM33 75v5.17M63 75v5.17M48 74v8M35 57l-1.59-.26A8.82 8.82 0 0127 52a7.94 7.94 0 004-7V29" stroke="#00008F" stroke-width="2" stroke-linecap="round" stroke-linejoin="round"/></svg>
